remix/System/delete-back-fill.svg

<svg viewBox="0 0 24 24" fill="currentColor" xmlns="http://www.w3.org/2000/svg"><path d="M6.53451 3H20.9993C21.5516 3 21.9993 3.44772 21.9993 4V20C21.9993 20.5523 21.5516 21 20.9993 21H6.53451C6.20015 21 5.88792 20.8329 5.70246 20.5547L0.369122 12.5547C0.145189 12.2188 0.145189 11.7812 0.369122 11.4453L5.70246 3.4453C5.88792 3.1671 6.20015 3 6.53451 3ZM15.9993 11H8.99932V13H15.9993V11Z"/></svg>

<svg viewBox="0 0 24 24" xmlns="http://www.w3.org/2000/svg"><path fill="none" d="M0 0h24v24H0Z"/><path d="M6.535 3H21v0c.55 0 1 .44 1 1v16 0c0 .55-.45 1-1 1H6.535v0c-.34 0-.65-.17-.84-.45l-5.333-8v0c-.23-.34-.23-.78 0-1.11l5.333-8v0c.18-.28.49-.45.83-.45ZM16 11H9v2h7v-2Z"/></svg>
